X: 1
T: Nearly a Blonde
C: Howard Rust
N: Modelled on the French-Canadian song "Apr\`es de ma blonde"
R: jig
Z: 2008 John Chambers <jc:trillian.mit.edu>
M: 6/8
L: 1/8
K: G
|: "G"GAB "E7"^GAB | "Am"ABc A2G | "D7"FGA DEF  |1,3"G"GFE "D7"DEF :|2,4 "G"G3 z3 :|
|: "G"d^cd "E/F"e2d | "Am"c3 A2B | "D7"cBc d2c | "G"B3 "F"A3 \
| "E7"^GAB GAB  | "Am"ABc ABc | "D7"ded def |1 "G"g3 Bc^c :|2 "G"g3 z3 |]
